X:1
T:Sub tuum praesidium
T:José de Torres y Martinez Bravo [1665-1738]
T:Marian hymn
T:Sub tuum praesidium
T:Copyright © 
T:Copyright © 
C:José de Torres y Martinez Bravo [1665-1738]
Z:Marian hymn
Z:Copyright ©
%%score [ 1 2 ]
L:1/8
M:4/4
K:Bb
V:1 treble nm="Soprano" snm="S."
V:2 bass nm="Continuo" snm="Cont."
V:1
 z8 | z8 | z8 | z8 | c3 c =B2 G2 | e3 e d2 z =B | cBAG ^F>F G2 | ED/C/ c3 c B2- | B2 _A2 A2 G2 | %9
w: ||||Sub tu- um prae-|si- di- um con-|fu- * * * * gi- mus,|san- * * * cta de-|* i ge- ni-|
 F8 | z4 F3 F | =E2 C2 _A3 A | G3 =E F_EDC | =B,>B, C2 z2 F2- | F2 E2 E2 D2 | D3 C D4 | z4 BBAA | %17
w: trix,|sub tu-|um prae- si- di-|um con- fu- * * *|* gi- mus, san-|* cta de- i|ge- ni- trix.|Nos- tras de- pre-|
 B2 ^F2 GFGA | ^F4 z4 | eedd e2 =B2 | c=Bcd B2 df | e/f/e/d/ c/d/c/B/ A>G F2 | z2 B2 z2 GB | %23
w: ca- ti- o- * * *|nes,|nos- tras de- pre- ca- ti-|o- * * * nes ne des-|pi- * * * * * * * * ci- as,|ne, ne des-|
 _A/B/A/G/ F/G/F/E/ D>C B,2 | z2 E3 EFG | FG E3 E D2 | z EFG _A3 A | G2 cB _AGAB | G4 z EDC | G8 | %30
w: pi- * * * * * * * * ci- as,|in ne- ces- si-|ta- * * ti- bus.|Sed a pe- ri- cu-|lis cun- * * * * *|ctis, li- be- ra|nos,|
 z =Bcd e3 e | d2 gf edef | d4 z BAG | d8 | z AGF B4 | GFGA BABG | AGAB cBcA | =BA/G/ c4 B2 | %38
w: sed a pe- ri- cu-|lis cun- * * * * *|ctis li- be- ra|nos,|li- be- ra nos|sem- * * * * * * *|||
[M:12/8] c3 def ede cde | d3 d3 G3 c3 | c3 B3 ABc Bcd | cde dcB B3 A3 | G3 z2 z z2 z z2 z | %43
w: per, vir- go glo- rio- * * * * *|sa et be- ne-|dic- ta, et _ _ _ _ _|be- * * ne- * * di- *|cta,|
 z2 z GAB _AGA FGA | G3 G3 C3 F3 | F3 E3 DEF EFG | FG_A GFE E3 D3 | C3 G FE E3 D3 | C12 |] %49
w: vir- go glo- rio- * * * * *|sa et be- ne-|dic- ta, et _ _ _ _ _|be- * * ne- * * di- *|cta, be- ne- * di- *|cta.|
V:2
 C3 C =B,2 G,2 | E3 E D2 z =B, | CB,A,G, ^F,2 G,=F, | =E,2 F,_E, D,2 E,2 | _A,4 G,4 | %5
 C,3 C, =B,,2 G,,2 | E,3 E, D,2 z =B,, | C,B,,A,,G,, ^F,,2 G,,2 | =E,,2 F,,2 C,4 | F,,4 B,,3 B,, | %10
 A,,2 F,,2 _D,3 D, | C,4 F,3 F, | =E,2 C,2 _A,3 A, | G,2 z =E, F,_E,D,C, | =B,,2 C,_B,, A,,2 B,,2 | %15
 _E,4 D,4 | B,B,A,A, B,2 ^F,2 | G,2 D,2 _E,4 | D,4 E,E,D,D, | E,2 =B,,2 C,2 G,,2 | %20
 _A,,4 G,,2 =B,,2 | C,2 =E,2 F,/G,/F,/E,/ D,/E,/D,/C,/ | %22
 B,,/C,/B,,/A,,/ G,,/A,,/G,,/F,,/ E,,2 =E,,2 | F,,2 F,2 B,/C/B,/A,/ G,/A,/G,/F,/ | %24
 E,/F,/E,/D,/ C,/D,/C,/B,,/ _A,,G,,F,,E,, | B,,2 C,2 B,,4 | E,3 =E, F,3 F, | =E,4 F,4 | %28
 z =E,F,G, _A,3 A, | G,3 F, E,2 D,C, | G,G,,A,,=B,, C,3 C, | =B,,4 C,4 | z =B,,C,D, E,3 E, | %33
 D,3 C, B,,2 A,,G,, | D,4 z D,C,B,, | E,4 D,C,D,E, | F,E,F,D, E,D,E,F, | G,2 _A,2 G,4 | %38
[M:12/8] C,3 =B,,3 C,3 C,3 | z2 z D,E,F, E,D,E, C,D,E, | D,3 G,,3 ^F,,3 G,,3 | %41
 A,,3 B,,A,,G,, D,3 D,3 | G,,3 G,A,B, _A,G,A, F,G,A, | G,3 =E,3 F,3 D,3 | %44
 _E,3 G,A,B, _A,G,A, F,G,A, | G,3 C,3 =B,,3 C,3 | D,3 E,D,C, G,3 G,,3 | C,D, E,2 D,C, G,3 G,,3 | %48
 C,12 |] %49

